src/assets/bold/lm-sign-bold.svg

<svg width="24" height="24" viewBox="0 0 24 24" fill="none" xmlns="http://www.w3.org/2000/svg" fill="currentColor">
<path d="M21.25 17.19C19.1 15.26 18.28 15 17.75 15C17.22 15 17 15.24 16 16C15.5717 16.3661 15.1171 16.7003 14.64 17C14.12 17 12.86 16.82 12.46 13.66C12.4505 13.5073 12.3933 13.3614 12.2964 13.243C12.1995 13.1245 12.0678 13.0395 11.92 13C11.7724 12.9644 11.6174 12.975 11.4761 13.0305C11.3348 13.086 11.2139 13.1835 11.13 13.31L9.12997 16.31C8.89997 16.65 8.68997 16.85 8.53997 16.85C8.38997 16.85 7.91997 16.71 6.84997 15.28C6.71997 15.1 6.56997 14.9 6.42997 14.67C7.6127 13.2839 8.33598 11.5648 8.49997 9.75C8.49997 6.63 7.44997 6 5.74997 6C5.4219 6.0009 5.09747 6.06877 4.79656 6.19945C4.49564 6.33013 4.22458 6.52088 3.99997 6.76C3.64392 7.16955 3.37229 7.64541 3.20068 8.16024C3.02907 8.67507 2.96086 9.21873 2.99997 9.76C3.17354 11.4674 3.72707 13.1143 4.61997 14.58C3.86686 15.5015 3.06575 16.3827 2.21997 17.22C2.08749 17.3622 2.01537 17.5502 2.01879 17.7445C2.02222 17.9388 2.10093 18.1242 2.23835 18.2616C2.37576 18.399 2.56114 18.4777 2.75545 18.4812C2.94975 18.4846 3.13779 18.4125 3.27997 18.28C4.09997 17.46 4.82997 16.67 5.44997 15.93L5.64997 16.2C6.50997 17.35 7.44997 18.45 8.57997 18.37C8.95516 18.3366 9.31588 18.2092 9.62876 17.9994C9.94163 17.7897 10.1966 17.5044 10.37 17.17L11.37 15.65C12.11 17.96 13.55 18.5 14.73 18.5C15.23 18.5 15.73 18.12 16.94 17.2C17.22 16.98 17.61 16.67 17.83 16.53C18.7236 16.9855 19.5347 17.5871 20.23 18.31C20.3035 18.3758 20.3892 18.4264 20.4823 18.4589C20.5754 18.4915 20.674 18.5054 20.7724 18.4998C20.8709 18.4943 20.9673 18.4693 21.0561 18.4265C21.1449 18.3836 21.2244 18.3236 21.29 18.25C21.4228 18.103 21.493 17.9099 21.4855 17.7119C21.478 17.5139 21.3935 17.3266 21.25 17.19ZM5.59997 13.24C5.00102 12.1595 4.62685 10.9689 4.49997 9.74C4.44849 9.04227 4.66684 8.3514 5.10997 7.81C5.19037 7.71801 5.28848 7.64316 5.39843 7.5899C5.50839 7.53664 5.62794 7.50606 5.74997 7.5C6.55997 7.5 6.99997 7.5 6.99997 9.75C6.8833 11.0249 6.39669 12.2379 5.59997 13.24Z" fill="black"/>
</svg>

<svg xmlns="http://www.w3.org/2000/svg" width="24" height="24" fill="currentColor" viewBox="0 0 24 24">
  <path d="M21.25 17.19C19.1 15.26 18.28 15 17.75 15c-.53 0-.75.24-1.75 1-.428.366-.883.7-1.36 1-.52 0-1.78-.18-2.18-3.34a.73.73 0 0 0-.54-.66.74.74 0 0 0-.79.31l-2 3c-.23.34-.44.54-.59.54-.15 0-.62-.14-1.69-1.57-.13-.18-.28-.38-.42-.61A8.8 8.8 0 0 0 8.5 9.75C8.5 6.63 7.45 6 5.75 6A2.41 2.41 0 0 0 4 6.76a4.12 4.12 0 0 0-1 3 11.5 11.5 0 0 0 1.62 4.82 33.912 33.912 0 0 1-2.4 2.64.75.75 0 0 0 1.06 1.06c.82-.82 1.55-1.61 2.17-2.35l.2.27c.86 1.15 1.8 2.25 2.93 2.17a2.24 2.24 0 0 0 1.79-1.2l1-1.52c.74 2.31 2.18 2.85 3.36 2.85.5 0 1-.38 2.21-1.3.28-.22.67-.53.89-.67a9.002 9.002 0 0 1 2.4 1.78.748.748 0 0 0 1.06-.06.76.76 0 0 0-.04-1.06ZM5.6 13.24a9.16 9.16 0 0 1-1.1-3.5 2.73 2.73 0 0 1 .61-1.93.91.91 0 0 1 .64-.31C6.56 7.5 7 7.5 7 9.75a6.57 6.57 0 0 1-1.4 3.49Z"/>
</svg>
